wp-content/themes/adf/library/img/icons/circle.svg

<?xml version="1.0" encoding="UTF-8" standalone="no"?>
<svg width="70px" height="70px" viewBox="0 0 70 70" version="1.1" xmlns="http://www.w3.org/2000/svg" xmlns:xlink="http://www.w3.org/1999/xlink" xmlns:sketch="http://www.bohemiancoding.com/sketch/ns">
    <!-- Generator: Sketch 3.2 (9964) - http://www.bohemiancoding.com/sketch -->
    <title>Oval 4</title>
    <desc>Created with Sketch.</desc>
    <defs></defs>
    <g id="Page-1" stroke="none" stroke-width="1" fill="none" fill-rule="evenodd" sketch:type="MSPage">
        <circle id="Oval-4" stroke="#85E1E5" stroke-width="3" opacity="0.495946825" fill="#FFFFFF" sketch:type="MSShapeGroup" cx="35" cy="35" r="35"></circle>
        <path d="M35,42 C41.0751322,42 46,37.0751322 46,31 C46,24.9248678 41.0751322,20 35,20 C28.9248678,20 24,24.9248678 24,31 C24,37.0751322 28.9248678,42 35,42 Z" id="Oval-19" fill="#85E1E5" sketch:type="MSShapeGroup"></path>
        <path d="M51,28 C51,31.3137085 48.3137085,34 45,34 C41.6862915,34 39,31.3137085 39,28 C39,26.7732623 39.3681527,25.6325112 40,24.6822049 L40,21 L51,21 L51,28 Z" id="Oval-20" stroke="#85E1E5" stroke-width="2" sketch:type="MSShapeGroup"></path>
        <path d="M31,28 C31,31.3137085 28.3137085,34 25,34 C21.6862915,34 19,31.3137085 19,28 C19,26.7732623 19.3681527,25.6325112 20,24.6822049 L20,21 L31,21 L31,28 Z" id="Oval-21" stroke="#85E1E5" stroke-width="2" sketch:type="MSShapeGroup" transform="translate(25.000000, 27.500000) scale(-1, 1) translate(-25.000000, -27.500000) "></path>
        <rect id="Rectangle-60" fill="#85E1E5" sketch:type="MSShapeGroup" x="24" y="18" width="22" height="13"></rect>
        <circle id="Oval-22" stroke="#FFFFFF" stroke-width="2" sketch:type="MSShapeGroup" cx="35" cy="29" r="4"></circle>
    </g>
</svg>

<svg width="70" height="70" viewBox="0 0 70 70" xmlns="http://www.w3.org/2000/svg"><title>Oval 4</title><desc>Created with Sketch.</desc><g fill="none" fill-rule="evenodd"><circle stroke="#85E1E5" stroke-width="3" opacity=".496" fill="#fff" cx="35" cy="35" r="35"/><path d="M35 42c6.075 0 11-4.925 11-11s-4.925-11-11-11-11 4.925-11 11 4.925 11 11 11z" fill="#85E1E5"/><path d="M51 28c0 3.314-2.686 6-6 6s-6-2.686-6-6c0-1.227.368-2.367 1-3.318V21h11v7zM19 28c0 3.314 2.686 6 6 6s6-2.686 6-6c0-1.227-.368-2.367-1-3.318V21H19v7z" stroke="#85E1E5" stroke-width="2"/><path fill="#85E1E5" d="M24 18h22v13H24z"/><circle stroke="#fff" stroke-width="2" cx="35" cy="29" r="4"/></g></svg>
